!!!!SEGMENT: pl-wn--mus-2041-10_zelenski-wladyslaw--a-kiedy-bedziesz-moja-zona.krn
!!!cenid: 18xx:3648
!!!COM: Żeleński, Władysław
!!!COM-rismid: pe41024455
!!!CDT:
!!!CNT:
!!!OTL: A kiedy będziesz moją żoną
!!!PDT:
!!!AGN:
!!!SMS-siglum: PL-Wn
!!!SMS-shelfmark: Mus.2041/10
!!!SMS-shelfwork: W
!!!SMS-variant:
!!!SMS-altvar:
!!!NIFC-rismid:
!!!URL-scan: https://polona.pl/item/a-kiedy-bedziesz-moja-zona-piesn-kazimierza-tetmajera,NjU5MjI0Njk/6/#info:metadata
!!!ONB-nifc:
!!!AIN: 1 piano 1 vox
!!!key: E-
**kern	**kern	**dynam	**kern	**text	**dynam
*part2	*part2	*part2	*part1	*part1	*part1
*staff3	*staff2	*staff2	*staff1	*staff1	*staff1
*I"Fortepian	*I"Fortepian	*	*I"Spiew.	*	*
*I'pf	*I'pf	*	*I'V	*	*
*Ipiano	*Ipiano	*	*Ivox	*	*
*ICklav	*ICklav	*	*ICvox	*	*
*clefF4	*clefG2	*	*clefG2	*	*
*k[b-e-a-]	*k[b-e-a-]	*	*k[b-e-a-]	*	*
*E-:	*E-:	*	*E-:	*	*
*M3/4	*M3/4	*	*M3/4	*	*
=1	=1	=1	=1	=1	=1
*	*clefF4	*	*	*	*
*^	*^	*	*	*	*
!	!	!	!	!	!LO:TX:a:B:t=Andante	!	!
!	!	!	!	!	!LO:TX:a:t=Andante non troppo lento.	!	!
!	!	!	!	!	!LO:TX:a:i:t=Słowa Kazimierza Tetmajera. [space] Muzyka W. Żeleńskiego.	!	!
!LO:N:vis=2	!	!	!	!	!LO:TX:a:i:t=Stachowi i Izi.	!	!
8EE-/L	2.EE-\	8r	8ryy	p	2.r	.	.
8BB-/	.	(>8E-/L	4E-\	.	.	.	.
8BB-/	.	8F/)	.	.	.	.	.
8BB-/	.	8G/	8E-\L	.	.	.	.
8BB-/	.	8A-/	8E-\	.	.	.	.
8BB-/J	.	8B-/J	8E-\J	.	.	.	.
=2	=2	=2	=2	=2	=2	=2	=2
!LO:N:vis=2	!	!	!	!	!	!	!
8EE-/L	2.EE-\	(>8c/L	8E-\	.	2.r	.	.
8E-/	.	8G/	2ryy	.	.	.	.
8E-/	.	8A-/J)	.	.	.	.	.
*	*	*clefG2	*	*	*	*	*
8E-/	.	(>8cL 8A-'>/	.	.	.	.	.
8E-/	.	8d 8A-'>/	.	.	.	.	.
8E-/J	.	8e-J 8A-'>/)	8ryy	.	.	.	.
=3	=3	=3	=3	=3	=3	=3	=3
!LO:N:vis=2	!	!	!	!	!	!	!
8EE-/L	2.EE-\	(>8f/L	[>4A-\	<	2.r	.	.
8E-/	.	8c/	.	.	.	.	.
8E-/	.	8d/)	8A-\]	.	.	.	.
8E-/	.	(8f 8d 8A-'>/	4.ryy	.	.	.	.
8E-/	.	8g 8d 8B-'>/	.	.	.	.	.
8E-/J	.	8a-J 8d 8c'>/)	.	[[	.	.	.
*	*	*v	*v	*	*	*	*
=4	=4	=4	=4	=4	=4	=4
!LO:N:vis=2	!	!	!	!	!	!
8EE-/L	2.EE-\	8gL 8e- 8B-/	.	4r	.	.
8BB-/	.	(<8G/J	.	.	.	.
!	!	!	!	!	!	!LO:DY:a
8BB-/	.	[<2c/)	>	8r	.	p
8BB-/	.	.	.	8g/	A	.
8BB-/	.	.	.	8g/	kie-	.
8BB-/J	.	.	]	8g/	-dy	.
=5	=5	=5	=5	=5	=5	=5
!LO:N:vis=2	!	!	!LO:DY:rj	!	!	!
8EE-\L	2.EE-/	8c/L]	pp	4b-/	bę-	.
8BB-\	.	(<8C/J	.	.	.	.
8BB-\	.	[<2G/)	.	4e-/	-dziesz	.
8BB-\	.	.	.	.	.	.
8BB-\	.	.	.	8f/	mo-	.
8BB-\J	.	.	.	8g/	-ją	.
!!LO:LB:g=original
=6	=6	=6	=6	=6	=6	=6
!LO:N:vis=2	!	!	!	!	!	!
8EE-/L	2.EE-\	8G/L]	.	4b-\	żo-	.
8E-/	.	(<[>8F/J	.	.	.	.
8E-/	.	[>2c [<2A- 2F/_<)	.	8a-/	-ną	.
!	!	!	!	!	!	!LO:HP:a
8E-/	.	.	.	8a-/	U-	<
8E-/	.	.	.	8g/	-mi-	.
8E-/J	.	.	.	8a-/	-ło-	[[
=7	=7	=7	=7	=7	=7	=7
!LO:N:vis=2	!	!	!	!	!	!
8DD/L	2.DD\	8c]L 8A-] 8F/]	.	4cc\	-wa-	.
8D/	.	(>(<8A-/J	.	.	.	.
8D/	.	[>2f [<2c [<2A-/))	.	4f/	-ną	.
8D/	.	.	.	.	.	.
8D/	.	.	.	8g/	po-	.
8D/J	.	.	.	8a-/	-ślu-	.
=8	=8	=8	=8	=8	=8	=8
*	*	*^	*	*	*	*
!LO:N:vis=2	!	!	!	!	!	!	!LO:HP:a
8GG/L	2.GG\	8f]L 8c] 8A-/]	2ryy	>	4cc\	-bio-	>
8D/	.	(>[<8A-/J	.	.	.	.	.
8D/	.	4f 4Bn 4A-/]	.	.	4bn\	-ną.	.
(>8D/	.	.	.	.	.	.	.
8E-/	.	8e-/L	4B 4G\	]	4r	.	]
8F/J	.	8d/J	.	.	.	.	.
*v	*v	*	*	*	*	*	*
*	*v	*v	*	*	*	*
=9	=9	=9	=9	=9	=9
8E-L 8C\)	8e- 8c 8G/)	p	2.r	.	.
!	!LO:TX:b:i:t=dolce	!	!	!	!
8G 8C\	(<8ee-L 8e-'/	.	.	.	.
8G 8C\	8dd 8e-'/	.	.	.	.
8G 8C\	8cc 8e-'/	.	.	.	.
8G 8C\	8g 8e-'/	.	.	.	.
8GJ 8C\	8b-J 8e-'/)	.	.	.	.
!!LO:LB:g=original
=10	=10	=10	=10	=10	=10
4F\	8a-L 8e-/	.	4r	.	.
.	8a- 8c/	.	.	.	.
[<2BB-/	8a- 8d/	.	8r	.	.
.	8a- 8f 8A-/	.	8dd\L	Wów-	.
.	8a- 8c 8A-/	.	8cc\J	.	.
.	8a-J 8d 8A-/	.	8a-/	-czas	.
=11	=11	=11	=11	=11	=11
!	!	!	!	!	!LO:HP:a
8BB-/]	8gL 8f 8G/	<	8g/	o-	<
8r	8g 8f 8G/	.	8g/	-gród	.
(<4D-X 4DD-X/	8b- 8e- 8B-/	.	4b-/	nam	.
.	8b- 8e- 8B-/	[	.	.	[
4C 4CC/	8e- 8An/	.	8an/	się	.
.	8e-J 8A/	.	8e-/	o-	.
=12	=12	=12	=12	=12	=12
2C-X 2CC-X/)	8a-XL 8e- 8A-X/	.	8a-X/L	-two-	.
.	8a- 8e- 8A-/	<	8g/J	.	.
.	8a- 8e- 8A-/	.	8f/	-rzy,	.
!	!	!	!	!	!LO:HP:a
.	8a- 8e- 8A-/	.	8f/L	wów-	<
4BB- 4BBB-/	8a- 8d 8A-/	.	8a-/J	.	.
.	8a-J 8d 8A-/	[[	8cc\	-czas	.
=13	=13	=13	=13	=13	=13
!	!	!LO:HP:t=poco cresc.	!	!	!
(>2.BB- (<2.BBB-/	8gL 8d-X 8G/	<	8b-\	o-	.
.	8g 8d- 8G/	.	8b-\	-gród	[
!	!	!	!	!	!LO:HP:a:t=poco cresc.
.	8f 8d- 8F/	.	4dd-X\	nam	<
.	8f 8d- 8F/	.	.	.	.
.	8en 8c 8En/	.	8cc\	się	.
.	8eJ 8c 8E/	.	8g/	o-	.
!!LO:PB:g=original
=14	=14	=14	=14	=14	=14
2FF#X 2FFF#X/))	8e-XL 8c 8E-X/	.	4b-/	-two-	.
.	8e- 8c 8E-/	.	.	.	.
.	8e- 8c 8E-/	.	8an/	-rzy,	.
.	8e- 8c 8E-/	.	8cc\	O-	.
4FF# 4FFF#/	8d 8c 8D/	.	8b-\	-gród	.
.	8dJ 8c 8D/	.	8a/	swie-	.
=15	=15	=15	=15	=15	=15
!	!	!	!	!	!LO:HP:a
8GGL 8GGG/	8d 8B- 8D/	.	8g/	-tla-	<
8B-J 8G/	8r	.	8b-/	-ny	.
8B-L 8G\	8r	.	[>2dd\	pe-	.
!	!LO:TX:b:t=espr.	!	!	!	!
8B- 8G\	(<8e-/L	.	.	.	[
8B- 8G\	8g/	.	.	.	.
8B-J 8G\	8an/J	.	.	.	.
=16	=16	=16	=16	=16	=16
8B-L 8G\	8b-/	.	2dd\_>	.	.
8B- 8G\	4d/)	.	.	.	.
8B- 8G\	.	.	.	.	.
8B- 8G\	(>(<8c/L	.	.	.	.
!	!	!	!	!	!LO:HP:a
8B- 8G\	8d/	>	8dd\]	.	>
8B-J 8G\	8en/J	.	8g/	-łen	.
=17	=17	=17	=17	=17	=17
*	*^	*	*	*	*
(>4An (<4F\	4cc/	8g\L	.	4cc\	zo-	.
.	.	8e-X\J	]	.	.	.
8B-L 8BB-\))	4b- 4d/))	2ryy	.	4b-\	-rzy.	]
8B-\	.	.	.	.	.	.
8B-\	8r	.	<	4r	.	.
!	!LO:N:vis=4	!	!	!	!	!
8B-\J	8a-X^>/	.	.	.	.	.
!!LO:LB:g=original
=18	=18	=18	=18	=18	=18	=18
8B-\L	2dd-X/	8a-\L	.	2.r	.	.
!	!LO:TX:a:t=poco string.	!	!	!	!	!
8B-\	.	(<8g\	.	.	.	.
8B-\	.	8f\	.	.	.	.
8B-\	.	8en\	.	.	.	.
8B-\	(>4cc/	8f\	.	.	.	.
8B-\J	.	8g\J	.	.	.	.
=19	=19	=19	=19	=19	=19	=19
8A-X\L	2cc-X/)	8f\L	.	2.r	.	.
8A-\	.	8e-\	.	.	.	.
8A-\	.	8d\	.	.	.	.
8A-\	.	8f\	.	.	.	.
8G\	4b-/	8e-\	.	.	.	.
8G\J	.	8B-\J	.	.	.	.
=20	=20	=20	=20	=20	=20	=20
!	!LO:TX:a:t=riten.	!	!	!	!	!
8G-X\L	(>4an/	8c\	.	4r	.	.
8G-\	.	4e-\)	.	.	.	.
8F\	4a-X/	.	.	4r	.	.
8F\	.	(8c\L	>	.	.	.
!	!	!	!	!	!	!LO:DY:a
8BB-\	4d/	8B-\	.	8r	.	p
8BB-\J	.	8A-\J	.	8a-/	Roz-	.
*	*v	*v	*	*	*	*
=21	=21	=21	=21	=21	=21
!	!LO:TX:a:t=a tempo	!	!LO:TX:a:t=a tempo	!	!
4EE-/	8e-L 8G/))	] p	8g/	-wo-	.
.	8e- 8E-/	.	8a-/	-nią	.
4r	8e- 8E-/	.	8b-/	nam	.
.	8e- 8E-/	.	8e-/	się	.
(>4D-X (<4DD-X/	8e- 8E-/	.	8f/	kwie-	.
.	8e-J 8E-/	.	8g/	-tne	.
=22	=22	=22	=22	=22	=22
4C-X 4CC-X/))	8e-L 8E-/	.	4cc\	sa-	.
.	8e- 8E-/	.	.	.	.
!	!	!	!	!	!LO:HP:a
4r	8e- 8E-/	.	8a-/	-dy	<
.	8e- 8E-/	<	8a-/L	Pa-	.
(>4AA- (<4AAA-/	8e- 8c-X 8E-/	.	8b-/J	.	.
.	8e-J 8c- 8E-/	.	8cc-X\	-chnąć	[[
!!LO:LB:g=original
=23	=23	=23	=23	=23	=23
2GG-X 2GGG-X/))	8f-XL 8B- 8F-X/	.	8dd-X\	bę-	.
!	!	!	!LO:TX:a:t=espr.	!	!
.	8f- 8B- 8F-/	[[	8cc-X\	-dą	.
.	8f- 8B- 8F-/	.	8b-/L	nam	.
.	8f- 8B- 8F-/	.	8e-/J	.	.
(>4GG- (<4GGG-/	8f- 8B- 8F-/	.	8f-X/	wi-	.
.	8f-J 8B- 8F-/	.	8b-/	-no-	.
=24	=24	=24	=24	=24	=24
2C-X 2CC-X/))	8f-XL 8B- 8F-X/	>	4a-/	-gra-	.
.	8f- 8B- 8F-/	.	.	.	.
.	8e- 8c-X 8E-/	]	8g-X/	-dy,	.
!	!	!LO:HP:t=poco cresc. e string.	!	!	!LO:HP:a:t=poco cresc. e string.
.	8e- 8c- 8E-/	<	8g-/	I	<
(>4C- (<4CC-/	8f- 8c- 8F-/	.	8a-/	ró-	.
.	8g-XJ 8c- 8G-X/	.	8b--/	-że	.
=25	=25	=25	=25	=25	=25
!	!LO:TX:b:t=string.	!	!	!	!
2FF-X 2FFF-X/))	8g-XL 8c 8G-X/	.	4b--\	śli-	.
.	8g- 8c 8G-/	.	.	.	.
.	8f-X 8d-X 8A-/	.	8a-/	-czne	.
.	8f- 8d- 8A-/	.	8a-/L	i	.
(>4FFn (<4FFFn/	8e- 8c-X 8A-/	.	8b-X/J	.	.
.	8e-J 8c- 8A-/	.	8cc\	po-	.
=26	=26	=26	=26	=26	=26
2GG-X 2GGG-X/))	8e--L 8c-X 8Fn/	.	4cc-X\	-wo-	.
.	8e-- 8c- 8Fn/	.	.	.	.
.	8d-X 8B- 8G-X/	.	4b-\	-je	.
.	8d- 8B- 8G-/	.	.	.	.
!	!LO:N:acc=n-	!	!	!	!
(>4GG- (<4GGG-/	8e-X 8B- 8G-/	.	8r	.	.
.	8f-XJ 8B- 8G-/	.	8b-\	Ca-	.
!!LO:LB:g=original
=27	=27	=27	=27	=27	=27
!	!	!	!	!	!LO:HP:a
8C-XL 8CC-X/))	8e-L 8B- 8G-X/	.	[2.ee-\	-ło-	<
8G-X 8C-/	(<8ee- 8e-'/	<	.	.	.
8G- 8C-/	8dd-X 8e-'/	.	.	.	.
8G- 8C-/	8cc-X 8e-'/	.	.	.	.
8G- 8C-/	8b- 8e-'/	.	.	.	.
8G-J 8C-/	8a-J 8e-'/)	[[	.	.	[
=28	=28	=28	=28	=28	=28
*^	*	*	*	*	*
!	!	!	!LO:HP:t=dim. e poco riten.	!LO:TX:a:t=poco riten.	!	!
(>4G-X/	[<4C-X\	8g-XL 8e-/	>	8ee-\]	.	.
!	!	!	!	!	!	!LO:DY:a
.	.	8g- 8e-/	.	8dd-X\	-wać	>
2c-X/	8C-\]	8g- 8e-/	.	8cc-X\	bę-	.
.	8r	8g- 8e-/	.	8b-\	-dą	.
.	4r	8f 8e-/	.	8an/	wło-	.
.	.	8fJ 8e-/	.	8f/	-sy	]]
*v	*v	*	*	*	*	*
=29	=29	=29	=29	=29	=29
2B-\)	8fL 8e-/	.	4cc-X\	two-	.
.	8f 8e-/	.	.	.	.
.	8f 8d/	.	4b-\	-je.	.
!	!	!	!LO:TX:a:t=a tempo	!	!
.	8f 8d/	.	.	.	.
(>4F\	8f 8e- 8cn/	<	4r	.	.
.	8fJ 8e- 8c/	.	.	.	.
=30	=30	=30	=30	=30	=30
(<[>2BB-/)	8fL 8d 8B-/	.	2.r	.	.
.	8f 8d 8B-/	.	.	.	.
.	8f 8c 8An/	.	.	.	.
.	8f 8c 8A/	.	.	.	.
4BB-_> 4BBB-/)	8f#X 8d 8A-X/	.	.	.	.
.	8f#J 8d 8A-/	[[	.	.	.
!!LO:PB:g=original
=31	=31	=31	=31	=31	=31
*^	*	*	*	*	*
8BB-]L 8EE-/	2.EE-\	8gL 8e- 8G/	pp	4r	.	.
!	!	!	!	!	!	!LO:DY:a
8BB-/	.	(<8G/J	.	.	.	p
8BB-/	.	[<2c/)	.	8r	.	.
8BB-/	.	.	.	8g/	Pój-	.
8BB-/	.	.	.	8g/	-dzie-	.
8BB-/J	.	.	.	8g/	-my	.
=32	=32	=32	=32	=32	=32	=32
!LO:N:vis=2	!	!	!	!	!	!
8EE-\L	2.EE-/	8c/L]	.	4b-\	ci-	.
8BB-\	.	(<8C</J	.	.	.	.
8BB-\	.	[2G/)	.	8e-/	-si	.
8BB-\	.	.	.	8e-/L	za-	.
8BB-\	.	.	.	8f/J	.	.
8BB-\J	.	.	.	8g/	-my-	.
=33	=33	=33	=33	=33	=33	=33
!LO:N:vis=2	!	!	!	!	!	!
8EE-L	2.EE-\	8G/L]	.	4b-/	-śle-	.
8E-/	.	(>[<8F/J	.	.	.	.
8E-/	.	[2c [2A- 2F/_)	.	8a-/	-ni	.
!	!	!	!	!	!	!LO:HP:a
8E-/	.	.	.	8a-/	Wśród	<
8E-/	.	.	.	8g/	zło-	.
8E-/J	.	.	.	8a-/	-tych	.
=34	=34	=34	=34	=34	=34	=34
!LO:N:vis=2	!	!	!	!	!	!
8DD/L	2.DD\	8c]L 8A-] 8F/]	.	4.cc\	przy-	.
8D/	.	(>[<8F#X/J	.	.	.	[
8D/	.	4.c 4.An 4.F#/])	.	.	.	.
8D/	.	.	.	8cc\	-mgleń	.
8D/	.	.	.	8b-\	i	.
8D/J	.	(>(<8A/	.	8an/	pro-	.
!!LO:LB:g=original
=35	=35	=35	=35	=35	=35	=35
!LO:N:vis=2	!	!	!	!	!	!
8GG/L	2GG\	(<[>4d 4c/))	.	4cc\	-mie-	.
8D/	.	.	.	.	.	.
8D/	.	8d]L 8B-/)	.	4.b-\	-ni	.
8D/J	.	8d 8B-/	>	.	.	.
8F/L	4FF\	8e- 8c 8A-X/	.	.	.	.
!	!	!	!	!LO:TX:a:t=dolce	!	!
8BB-/J	.	8fJ 8d 8A-/	]]	8b-\	Pój-	.
=36	=36	=36	=36	=36	=36	=36
!	!	!	!	!	!	!LO:HP:a
8E-/L	[<2.EE-\	8gL 8e- 8G/	.	[>2.b-\	-dzie-	<[
8BB-/	.	8g 8f/	pp	.	.	.
8BB-/	.	8g 8e-/	<	.	.	.
8BB-/	.	8g 8d/	.	.	.	.
8BB-/	.	8g 8c/	.	.	.	.
8BB-/J	.	8gJ 8G/	[[	.	.	.
=37	=37	=37	=37	=37	=37	=37
4BB-/	4EE-\]	8gL 8B-/	.	8b-\]	.	.
.	.	8g 8B-/	.	8ee-\	-my	.
(>4E-\	2ryy	8g 8B-/	.	8dd\	wol-	.
.	.	8g 8d-X/	.	8dd-X\	-no	.
4En\	.	8g 8c/	.	8cc\	a-	.
.	.	8cJ 8B-/	.	8g/	-le-	.
*v	*v	*	*	*	*	*
=38	=38	=38	=38	=38	=38
2.F\)	8gL 8e-X 8B-/	.	4b-/	-ja-	.
.	8g 8e- 8B-/	.	.	.	.
.	8f 8e- 8An/	.	4an/	-mi,	.
.	8f 8e- 8A/	<	.	.	.
.	8cc 8f 8e-/	.	4r	.	.
.	8ccJ 8f 8e-/	.	.	.	.
!!LO:LB:g=original
=39	=39	=39	=39	=39	=39
4.BB-/	8ccL 8f 8e-/	.	2.r	.	.
.	8cc 8f 8e-/	.	.	.	.
.	8f 8d/	.	.	.	.
8BB-/L	8f 8d/	.	.	.	.
8BB-/	8g 8f-X 8d-X/	.	.	.	.
8BB-/J	8gJ 8f- 8d-/	[	.	.	.
=40	=40	=40	=40	=40	=40
*^	*^	*	*	*	*
!LO:N:vis=2	!	!	!	!	!	!	!
8BBB-/L	2.BBB-\	4b-/	2e- 2c-X\	>	4r	.	.
8BB-/	.	.	.	.	.	.	.
8BB-/	.	4a-/	.	]	8r	.	.
8BB-/	.	.	.	.	8a-/	Po-	.
8BB-/	.	4r	4ryy	.	8g/	-mię-	.
8BB-/J	.	.	.	.	8a-/	-dzy	.
=41	=41	=41	=41	=41	=41	=41	=41
!LO:N:vis=2	!	!	!	!	!	!	!
8BBB-/L	2.BBB-\	(>4e-/	[<2.c-X [<2.A-\	<	4cc-X\	drze-	.
8BB-/	.	.	.	.	.	.	.
8BB-/	.	4d/	.	.	4f/	-wa,	.
8BB-/	.	.	.	.	.	.	.
8BB-/	.	4g-X/	.	[	4r	.	.
8BB-/J	.	.	.	.	.	.	.
=42	=42	=42	=42	=42	=42	=42	=42
!LO:N:vis=2	!	!	!	!	!	!	!
8BBB-/L	2.BBB-\	2f/	2.c-X_ 2.A-\_<	>	4dd-X\	ci-	.
8BB-/	.	.	.	.	.	.	.
8BB-/	.	.	.	.	4cc-X\	-si,	.
8BB-/	.	.	.	.	.	.	.
8BB-/	.	[>4e-/)	.	]	4r	.	.
8BB-/J	.	.	.	.	.	.	.
!!LO:LB:g=original
=43	=43	=43	=43	=43	=43	=43	=43
!LO:N:vis=2	!	!	!	!	!	!	!
8BBB-/L	2.BBB-\	8e-]L 8c-X] 8A-/]	8ryy	.	4r	.	.
8BB-/	.	(>8B-^</	4B-\	.	.	.	.
8BB-/	.	8cn/)	.	<	(>[>2b-\	Sa-	.
8BB-/	.	8d 8B-'>/	4.ryy	.	.	.	.
8BB-/	.	8e- 8c 8B-'>/	.	.	.	.	.
8BB-/J	.	8fJ 8d 8B-'>/	.	[[	.	.	.
=44	=44	=44	=44	=44	=44	=44	=44
*	*^	*	*	*	*	*	*
!	!LO:N:vis=2	!	!	!	!	!	!	!
(>4A-/	8EE-\L	2.EE-/	[>2.g/	8c\L	>	8b-/L]	.	.
.	8BB-\	.	.	8d\J	.	8f/J)	.	.
N[>2G/)	8BB-\	.	.	[<2e-\	.	2g/	-mi!	.
.	8BB-\	.	.	.	.	.	.	.
.	8BB-\	.	.	.	.	.	.	.
.	8BB-\J	.	.	.	.	.	.	.
*	*v	*v	*	*	*	*	*	*
=45	=45	=45	=45	=45	=45	=45	=45
!LO:N:vis=2	!	!	!	!	!	!	!
8EE-\L	2.EE-/	8g/L] 8e-\] 4G</N]	8ryy	]	8g/	.	.
*	*	*clefF4	*	*	*	*	*
8BB-\	.	(>8E-/	4E-\	p	8r	.	.
8BB-\	.	8F/)	.	.	4r	.	.
8BB-\	.	(>8G'/	8E-\L	.	.	.	.
8BB-\	.	8A-'/	8E-\	.	4r	.	.
8BB-\J	.	8B-'/J)	8E-\J	.	.	.	.
=46	=46	=46	=46	=46	=46	=46	=46
!LO:N:vis=2	!	!	!	!	!	!	!
8EE-/L	2.EE-\	(>8c/L	8E-\	.	2.r	.	.
8E-/	.	8G/	2ryy	.	.	.	.
8E-/	.	8A-/)	.	.	.	.	.
*	*	*clefG2	*	*	*	*	*
!	!	!	!	!LO:HP:b=2	!	!	!
8E-/	.	(>8c 8A-'>/	.	<	.	.	.
8E-/	.	8d 8A-'>/	.	.	.	.	.
8E-/J	.	8e-J 8A-'>/)	8ryy	.	.	.	.
=47	=47	=47	=47	=47	=47	=47	=47
!LO:N:vis=2	!	!	!	!	!	!	!
8EE-/L	2.EE-\	(>8f/L	[<4A-\	.	2.r	.	.
8E-/	.	8c/J	.	.	.	.	.
8E-/	.	8d/L)	8A-\L]	.	.	.	.
8E-/	.	(>8f 8d'/	8A-\	.	.	.	.
8E-/	.	8g 8d'/	8B-\	.	.	.	.
8E-/J	.	8a-J 8d'/)	8c\J	[[	.	.	.
*	*	*v	*v	*	*	*	*
!!LO:PB:g=original
=48	=48	=48	=48	=48	=48	=48
!LO:N:vis=2	!	!	!	!	!	!
8EE-/L	2.EE-\	8gL 8e- 8B-/	.	4r	.	.
8BB-/	.	(<8G/J	pp	.	.	.
8BB-/	.	[<2c/)	.	8r	.	.
8BB-/	.	.	.	8g/	Ga-	.
8BB-/	.	.	.	8g/	-łąz-	.
8BB-/J	.	.	.	8g/	-ki	.
=49	=49	=49	=49	=49	=49	=49
!LO:N:vis=2	!	!	!	!	!	!
8EE-\L	2.EE-/	8c/L]	.	4.b-\	ku	.
8BB-\	.	(<8C</J	.	.	.	.
8BB-\	.	[<2G/)	.	.	.	.
8BB-\	.	.	.	8e-/	nam	.
8BB-\	.	.	.	8f/	zwi-	.
8BB-\J	.	.	.	8g/	-sać	.
=50	=50	=50	=50	=50	=50	=50
!LO:N:vis=2	!	!	!	!	!	!
8EE-/L	2.EE-\	8G/L]	.	4b-\	bę-	.
8E-/	.	8F/J	.	.	.	.
8E-/	.	[>2c [<2A- [<2F/	.	8a-/	-dą,	.
8E-/	.	.	.	8a-/	Nar-	.
!	!	!	!	!	!	!LO:HP:a
8E-/	.	.	<	8g/	-cy-	<
8E-/J	.	.	.	8a-/	-zy	.
=51	=51	=51	=51	=51	=51	=51
!LO:N:vis=2	!	!	!	!	!	!
8DD/L	2.DD\	8c]L 8A-] 8F/]	.	4.cc\	piąć	.
8D/	.	(>[<8A-/J	.	.	.	.
8D/	.	[>2f [<2c 2A-/_<)	[[	.	.	.
8D/	.	.	.	8f/	się	.
8D/	.	.	.	8g/	sre-	.
8D/J	.	.	.	8a-/	-brną	[[
!!LO:LB:g=original
=52	=52	=52	=52	=52	=52	=52
*	*	*^	*	*	*	*
!LO:N:vis=2	!	!	!	!	!	!	!LO:HP:a
8GG/L	2.GG\	8f]L 8c] 8A-/]	4ryy	>	4cc\	grzę-	>
8D/	.	(>8A-/J	.	.	.	.	.
8D/	.	4f [4Bn/	(>4A-\	.	4bn\	-dą,	.
(>8D/	.	.	.	.	.	.	]
8E-/	.	8e-/L	4B] 4G\)	]	4r	.	.
8F/J	.	8d/J	.	.	.	.	.
*v	*v	*	*	*	*	*	*
*	*v	*v	*	*	*	*
=53	=53	=53	=53	=53	=53
8E-L 8C\)	8e-L 8c 8G/)	.	2.r	.	.
!	!LO:TX:b:i:t=dolce	!	!	!	!
8G 8C\	(>8ee- 8e-/	.	.	.	.
8G 8C\	8dd 8e-'>/	.	.	.	.
8G 8C\	8b- 8e-'>/	.	.	.	.
8G 8C\	8g 8e-'>/	.	.	.	.
8GJ 8C\	8b-J 8e-'>/)	.	.	.	.
=54	=54	=54	=54	=54	=54
4F\	8a-L 8e-/	.	4r	.	.
.	8a- 8c/	.	.	.	.
[<2BB-/	8a- 8d/	.	8r	.	.
!	!	!	!LO:TX:a:t=dolce	!	!
.	8a- 8f 8A-/	.	8dd\	I	.
.	8a- 8c 8A-/	.	8cc\	pad-	.
.	8a-J 8d 8A-/	.	8a-/	-nie	.
=55	=55	=55	=55	=55	=55
8BB-/]	8gL 8f 8G/	<	8g/	bia-	.
8r	8g 8f 8G/	.	8g/	-ły	.
(<4D-X 4DD-X/	8b- 8e- 8B-/	.	(>4b-\	kwiat	.
.	8b- 8e- 8B-/	.	.	.	.
4C 4CC/	8e- 8An/	[	8an/)	.	.
.	8e-J 8A/	.	8e-/	li-	.
!!LO:LB:g=original
=56	=56	=56	=56	=56	=56
2C-X 2CC-X/)	8a-XL 8e- 8A-X/	.	8a-X/L	-po-	.
.	8a- 8e- 8A-/	<	8g/J	.	.
!	!	!	!	!	!LO:HP:a
.	8a- 8e- 8A-/	.	8f/	-wy,	<
.	8a- 8e- 8A-/	.	8f/	I	.
[>4BB- [<4BBB-/	8d 8A-/	.	8a-/	pad-	.
.	8dJ 8A-/	[[	8cc\	-nie	[
=57	=57	=57	=57	=57	=57
!	!	!LO:HP:t=poco cresc.	!	!	!LO:HP:a:t=poco cresc.
2BB-] 2BBB-/]	8gL 8d-X 8G/	<	8b-\	bia-	<
.	8g 8d- 8G/	.	8b-\	-ły	.
.	8f 8d- 8F/	.	(>4dd-X\	kwiat	.
.	8f 8d- 8F/	.	.	.	.
(>4BB- (<4BBB-/	8en 8c 8En/	.	8cc\)	.	.
.	8eJ 8c 8E/	.	8g/	li-	.
=58	=58	=58	=58	=58	=58
2FF#X 2FFF#X/))	8e-XL 8c 8E-X/	.	4b-\	-po-	.
.	8e- 8c 8E-/	.	.	.	.
.	8e- 8c 8E-/	.	8an/	-wy,	.
.	8e- 8c 8E-/	.	8cc\	Na	.
(>4FF# (<4FFF#/	8d 8c 8D/	.	8b-\	roz-	.
.	8dJ 8c 8D/	.	8a\	-ko-	.
=59	=59	=59	=59	=59	=59
8GGL 8GGG/))	4d 4B- 4D/	.	8g/	-cha-	.
8B-J 8G/	.	.	8b-/	-ne	.
8B-L 8G\	8r	.	[>2dd\	na-	.
!	!LO:TX:b:t=espr.	!	!	!	!
8B- 8G\	(<8e-/L	.	.	.	.
8B- 8G\	8g/	.	.	.	.
8B-J 8G\	8an/J	.	.	.	.
!!LO:LB:g=original
=60	=60	=60	=60	=60	=60
8B-L 8G\	8b-/	.	2dd\_>	.	.
8B- 8G\	4d/)	.	.	.	.
8B- 8G\	.	.	.	.	.
8B- 8G\	8c/L	.	.	.	.
8B- 8G\	8d/	>	8dd\]	.	.
!	!	!	!	!	!LO:DY:a
8B-J 8G\	8en/J	.	8g/	-sze	>
=61	=61	=61	=61	=61	=61
*	*^	*	*	*	*
(>4An (<4F\	4cc/	8g\L	.	4cc\	gło-	.
.	.	8e-X\J	]	.	.	.
8B-L 8BB-\))	8b-/	4d\	.	4b-\	-wy.	]
8B-\	8r	.	.	.	.	.
8B-\	(>4a-X^>/	4ryy	.	4r	.	.
8B-\J	.	.	.	.	.	.
=62	=62	=62	=62	=62	=62	=62
!	!LO:TX:a:i:t=poco stringendo	!	!	!	!	!
8B-\L	2dd-X/	8a-\L	<	2.r	.	.
8B-\	.	(<8g\	.	.	.	.
8B-\	.	8f\	.	.	.	.
8B-\	.	8en\	.	.	.	.
8B-\	4cc/	8f\	.	.	.	.
8B-\J	.	8g\J	.	.	.	.
=63	=63	=63	=63	=63	=63	=63
8A-\L	2cc-X/)	8f\L	.	2.r	.	.
8A-\	.	8e-\	.	.	.	.
8A-\	.	8d\	.	.	.	.
8A-\J	.	8f\	.	.	.	.
8G\L	(>4b-/	8e-\	.	.	.	.
8G\J	.	8B-\J	.	.	.	.
=64	=64	=64	=64	=64	=64	=64
!	!LO:TX:a:i:t=riten.	!	!	!	!	!
8G-X\L	4an/	8c\	.	4r	.	.
8G-\J	.	4e-\)	.	.	.	.
8F\L	4a-X/	.	>	4r	.	.
8F\J	.	(8c\L	.	.	.	.
!	!	!	!	!	!	!LO:DY:a
8BB-/L	4d/	8B-\	]	8r	.	p
!	!	!	!	!LO:TX:a:i:t=a.t.	!	!
8BB-/J	.	8A-\J	.	8a-/	U-	.
*	*v	*v	*	*	*	*
!!LO:PB:g=original
=65	=65	=65	=65	=65	=65
!	!	!	!LO:TX:a:t=a tempo	!	!
4EE-/	8e-L 8G/))	p	8g/	-bio-	.
.	8e- 8E-/	.	8a-/	-rę	.
4r	8e- 8E-/	.	8b-/	cie-	.
.	8e- 8E-/	.	8e-/	-bie	.
(>4D-X (<4DD-X/	8e- 8E-/	.	8f/	w błę-	.
.	8e-J 8E-/	.	8g/	-kit	.
=66	=66	=66	=66	=66	=66
4C-X 4CC-X/))	8e-L 8E-/	.	4b-/	kwia-	.
.	8e- 8E-/	.	.	.	.
!	!	!	!	!	!LO:HP:a
4r	8e- 8E-/	<	8a-/	-tów,	<
.	8e- 8E-/	.	8a-/	Nie-	.
(>4AA- (<4AAA-/	8e- 8c-X 8E-/	.	8b-/	-za-	.
.	8e-J 8c- 8E-/	[[	8cc-X/	-po-	[[
=67	=67	=67	=67	=67	=67
!	!	!	!LO:TX:a:t=espr.	!	!
2GG-X 2GGG-X/))	8f-XL 8B- 8F-X/	.	8dd-X\	-mi-	.
.	8f- 8B- 8F-/	.	8cc-X\	-nek	.
.	8f- 8B- 8F-/	.	8b-/L	i	.
.	8f- 8B- 8F-/	.	8e-/	.	.
(>4GG- (<4GGG-/	8f- 8B- 8F-/	.	8fn/J	.	.
.	8f-J 8B- 8F-/	.	8b-/	bła-	.
=68	=68	=68	=68	=68	=68
!	!	!LO:HP:t=poco stringendo e cresc.	!	!	!LO:HP:a:t=poco stringendo e cresc.
2C-X 2CC-X/))	8f-XL 8B- 8F-X/	<	4a-/	-wa-	<
.	8f- 8B- 8F-/	.	.	.	.
.	8e- 8c-X 8E-/	.	8g-X/	-tów,	.
.	8e- 8c- 8E-/	.	8g-/	U-	.
(>4C- (<4CC-/	8f- 8c- 8F-/	.	8a-/	-stro-	.
.	8gnJ 8c- 8G-X/	.	8b--/	-ję	.
!!LO:LB:g=original
=69	=69	=69	=69	=69	=69
2FF-X 2FFF-X/))	8g-XL 8cn 8G-X/	.	4b--/	cie-	.
.	8g- 8c 8G-/	.	.	.	.
.	8f-X 8d-X 8A-/	.	8a-/	-bie	.
.	8f- 8d- 8A-/	.	8a-/L	w pa-	.
!	!	!	!LO:N:acc=n-	!	!
(>4FFn (<4FFFn/	8e- 8c 8A-/	.	8b-X/J	.	.
.	8e-J 8c 8A-/	.	8cc\	-proć	.
=70	=70	=70	=70	=70	=70
2GG-X 2GGG-X/))	8e--L 8c-X 8Fn/	.	4cc-X\	mło-	.
.	8e-- 8c- 8F/	.	.	.	.
.	8d-X 8B- 8G-X/	.	4b-\	-dą,	.
.	8d- 8B- 8G-/	.	.	.	.
!	!LO:TX:t=P:problem=kasownik obok bemola przy 8e-	!	!	!	!
(>4GG- (<4GGG-/	8e-X 8B- 8G-/	.	8r	.	.
.	8f-XJ 8B- 8G-/	.	8b-\	I	.
=71	=71	=71	=71	=71	=71
!	!	!	!	!	!LO:HP:a
8C-XL 8CC-X/))	8e-L 8B- 8G-X/	.	[>2.ee-\	swiat	<
8G-X 8C-/	(<8ee- 8e-/	<	.	.	.
8G- 8C-/	8dd-X 8e-/	.	.	.	.
8G- 8C-/	8cc-X 8e-/	.	.	.	.
8G- 8C-/	8b- 8e-/	.	.	.	.
8G-J 8C-/	8a-J 8e-/)	[[	.	.	.
=72	=72	=72	=72	=72	=72
*^	*	*	*	*	*
!	!	!	!LO:HP:t=dim. e poco riten.	!	!	!
(>4G-X/	[<4C-X\	8g-XL 8e-/	>	8ee-\]	.	[
!	!	!	!	!	!	!LO:HP:a
.	.	8g- 8e-/	.	8dd-X\	roz-	>
2c-X/	8C-\]	8g- 8e-/	.	8cc-X\	-świe-	.
.	8r	8g-J 8e-/	.	8b-\	-tlę	.
.	4r	8fL 8e-/	.	8an/	twą	.
.	.	8fJ 8e-/	.	8f/	u	]]
*v	*v	*	*	*	*	*
!!LO:LB:g=original
=73	=73	=73	=73	=73	=73
!	!	!	!LO:TX:t=P:problem=brak tekstu (ro-dą)	!	!
!	!	!	!LO:TX:a:t=a tempo	!	!
2B-\)	8fL 8e-/	.	4cc-X\	.	.
.	8f 8e-/	.	.	.	.
.	8f 8d/	.	4b-\	.	.
.	8f 8d/	.	.	.	.
(>4F\	8f 8e- 8cn/	.	4r	.	.
.	8fJ 8e- 8c/	.	.	.	.
=74	=74	=74	=74	=74	=74
(<[>2BB-/)	8fL 8d 8B-/	<	2.r	.	.
.	8f 8d 8B-/	.	.	.	.
.	8f 8c 8An/	.	.	.	.
.	8f 8c 8A/	.	.	.	.
4BB-_ 4BBB-/)	8f#X 8d 8A-X/	.	.	.	.
.	(>8f#J 8d 8A-/	[[	.	.	.
=75	=75	=75	=75	=75	=75
*^	*	*	*	*	*
8BB-/L]	2.EE-\	8gL 8e- 8G/)	pp	4r	.	.
8BB-/	.	(<8G/J	.	.	.	.
8BB-/	.	[<2c/)	.	8r	.	.
8BB-/	.	.	.	8g/	Pój-	.
8BB-/	.	.	.	8g/	-dzie-	.
8BB-/J	.	.	.	8g/	-my	.
=76	=76	=76	=76	=76	=76	=76
!LO:N:vis=2	!	!	!	!	!	!
8EE-/L	2EE-\	8c/L]	.	4b-\	ci-	.
8BB-/J	.	(<8C</J	.	.	.	.
8BB-/L	.	[<2G/)	.	8e-/	-si	.
8BB-/	.	.	.	8e-/L	za-	.
8BB-/	4ryy	.	.	8f/J	.	.
8BB-/J	.	.	.	8g/	-my-	.
=77	=77	=77	=77	=77	=77	=77
!LO:N:vis=2	!	!	!	!	!	!
8EE-/L	2.EE-\	8G/L]	.	4b-\	-śle-	.
8E-/	.	(<8G/J	.	.	.	.
8E-/	.	[>2c [<2A- [<2F/)	<	8a-/	-ni,	.
8E-/	.	.	.	8a-/	Wśród	.
8E-/	.	.	.	8g/	zło-	.
8E-/J	.	.	.	8a-/	-tych	.
!!LO:LB:g=original
=78	=78	=78	=78	=78	=78	=78
!LO:N:vis=2	!	!	!	!	!	!
8DD/L	2.DD\	8c]L 8A-] 8F/]	.	4.cc\	przy-	.
8D/	.	[8F#X/J	.	.	.	.
8D/	.	[>4c [<4An 4F#/_<	[	.	.	.
8D/	.	.	.	8cc\	-mgleń	.
8D/	.	8c]L 8A] 8F#/]	.	8b-\	i	.
8D/J	.	(>(<8A/J	.	8an/	pro-	.
=79	=79	=79	=79	=79	=79	=79
!LO:N:vis=2	!	!	!	!	!	!
8GG/L	[<2.GG\	(<[>4d 4c/))	.	4cc\	-mie-	.
8D/	.	.	.	.	.	.
8D/	.	4d_ [4B-/)	.	4b-\	-ni,	.
8D/	.	.	.	.	.	.
8D/	.	8d]L 8B-/]	.	4r	.	.
8D/J	.	(>8f#XJ 8d/	>	.	.	.
=80	=80	=80	=80	=80	=80	=80
8D/L	4GG\_<	4an 4c/	.	2.r	.	.
8D/	.	.	.	.	.	.
8D/J	8GG\]	8gL 8B-/)	.	.	.	.
8r	4.ryy	8d 8B-/	.	.	.	.
(<4G 4GG/	.	8d 8B-/	]	.	.	.
.	.	8dJ 8B-/	.	.	.	.
*v	*v	*	*	*	*	*
=81	=81	=81	=81	=81	=81
4G-X 4GG-X/	8dL 8B-/	.	4r	.	.
.	8d 8B-/	>	.	.	.
4F 4FF/	8d 8B-/	.	8r	.	.
!	!	!	!LO:TX:a:t=dolce	!	!
.	8d 8B-/	.	8dd\	Pój-	.
4BB- 4BBB-/	8e- 8c 8A-/	.	8cc\	-dzie-	.
.	8fJ 8d 8A-/	]]	8a-/	-my	.
=82	=82	=82	=82	=82	=82
4E- 4EE-/)	8gL 8e- 8G/	pp	(<8g/L	w o-	.
.	8e- 8E-/	.	8cc/J	.	.
(<4D-X 4DD-X/	8e- 8E-/	.	8b-/)	.	.
.	8e- 8E-/	.	8an/	-gród	.
4C-X 4CC-X/	8e- 8E-/	.	8a-X/	pe-	.
.	8e-J 8E-/	.	8e-/	-łen	.
!!LO:PB:g=original
=83	=83	=83	=83	=83	=83
!	!	!LO:HP:t=poco cresc.	!	!	!LO:HP:a:t=poco cresc.
2BB- 2BBB-/)	8e-L 8E-/	<	4g/	zo-	<
.	8e- 8E-/	.	.	.	.
.	8e- 8F/	.	8f/	-rzy,	.
.	8e- 8F/	.	8f/	pój-	.
(<4AA- 4AAA-/	8d 8B-/	.	8g/	-dzie-	.
.	8dJ 8B-/	.	8a-/	-my	.
=84	=84	=84	=84	=84	=84
4GG 4GGG/	8e-L 8B-/	.	(>8b-\L	w o-	.
.	8B-/	.	8ee-\J	.	.
4FF 4FFF/	8B- 8A-/	.	8dd\)	.	.
.	8B- 8A-/	.	8dd-X\	-gród	.
4EEn 4EEEn/	8B- 8G/	.	8cc\	pe-	.
.	8B-J 8G/	.	8g/	-łen	.
=85	=85	=85	=85	=85	=85
2EE-X 2EEE-X/)	8d-XL 8G-X/	.	4b-/	zo-	.
.	8d- 8G-/	.	.	.	.
.	8c 8G-/	.	8an/	-rzy,	.
.	8c 8G-/	.	8a/L	Kę-	.
(<4DD 4DDD/	8c 8F#X/	.	8b-/J	.	.
.	8cJ 8F#/	.	8cc\	-dy	.
=86	=86	=86	=86	=86	=86
!	!	!	!	!	!LO:HP:a
2GG 2GGG/)	8B-L 8G/	.	2b-\	drzwi	<
.	(<8e- 8E-'/	.	.	.	.
.	8dn 8E-'/	<	.	.	.
.	8d-X 8E-'/	.	.	.	.
(<4EE- 4EEE-/	8c 8E-'/	.	8cc\	mi-	.
.	8B-J 8E-'/)	.	8dd-X\	-łość	[
!!LO:LB:g=original
=87	=87	=87	=87	=87	=87
2AA- 2AAA-/)	8cL 8E-/	.	8cc\	nam	.
.	8c 8A- 8E-/	.	8cc\	o-	.
.	.	.	(<8qff/	.	.
.	8c 8A- 8E-/	.	(>4.ee-\)	-two-	.
.	8c 8A- 8E-/	[	.	.	.
4FF 4FFF/	8f 8c 8A-/	.	.	.	.
.	8fJ 8c 8A-/	.	8cc\)	.	.
=88	=88	=88	=88	=88	=88
*^	*	*	*	*	*
!LO:N:vis=2	!	!	!	!	!	!
8BBB-\L	2.BBB-/	8e-L 8B- 8G/	p	4b-\	-rzy.	.
8BB-\	.	8E-</	.	.	.	.
8BB-\	.	8F</	.	8r	.	.
!	!	!	!	!	!	!LO:DY:a
8BB-\	.	8G</	.	8e-/	Pój-	p
8BB-\	.	8A-</	.	8f/	-dzie-	.
8BB-\J	.	8B-</J	.	8g/	-my	.
=89	=89	=89	=89	=89	=89	=89
*	*	*^	*	*	*	*
!LO:N:vis=2	!	!LO:TX:t=P:problem=mixed beam	!	!	!	!	!
8BBB-\L	2.BBB-/	[>4e-/	8c-X\L	.	4b-/	ci-	.
8BB-\	.	.	8F</	.	.	.	.
8BB-\	.	8e-/]	8G</	.	8a-/	-si,	.
!	!	!	!	!	!	!	!LO:HP:a
8BB-\	.	4.ryy	8A-</	.	8f/L	za-	>
8BB-\	.	.	8B-</	.	8g/J	.	.
8BB-\J	.	.	8c-\J	>	8a-/	-my-	.
=90	=90	=90	=90	=90	=90	=90	=90
!LO:N:vis=2	!	!	!	!	!	!	!
8BBB-/L	2.BBB-/	[>2.a-/	8f\L	.	4dd-X\	-śle-	.
8BB-/	.	.	(<8A-\	.	.	.	.
8BB-/	.	.	8c-X\	.	4cc-X\	-ni,	]
8BB-/	.	.	8e-\	.	.	.	.
8BB-/	.	.	8d\	]	4r	.	.
8BB-/J	.	.	8e-\J	.	.	.	.
!!LO:LB:g=original
=91	=91	=91	=91	=91	=91	=91	=91
!LO:N:vis=2	!	!	!	!	!	!	!
8BBB-/L	2.BBB-\	8a-]L 8f/)	8ryy	pp	2.r	.	.
8BB-/	.	8B-/	4B-\	.	.	.	.
8BB-/	.	8c/	.	.	.	.	.
8BB-/	.	(<8d 8B-/	4.ryy	.	.	.	.
8BB-/	.	8e- 8c 8An/)	.	.	.	.	.
8BB-/J	.	8fJ 8d 8A-X/	.	.	.	.	.
*	*	*v	*v	*	*	*	*
=92	=92	=92	=92	=92	=92	=92
!	!	!	!	!	!	!LO:DY:a:rj
!LO:N:vis=2	!	!	!	!	!	!LO:HP:a
8EE-\L	2.EE-/	8gL 8e- 8G/	.	[>2.ee-\	Sa-	p <
8BB-\	.	(>8E-</	.	.	.	.
8BB-\	.	8F< 8E-</)	<	.	.	.
8BB-\	.	(>8G< 8E-<'>/	.	.	.	.
8BB-\	.	8A-< 8E-<'>/	.	.	.	.
8BB-\J	.	8B-<J 8E-<'>/)	.	.	.	[
=93	=93	=93	=93	=93	=93	=93
*	*	*^	*	*	*	*
!LO:N:vis=2	!	!	!	!	!	!	!
8EE-/L	2.EE-\	(>8c/L	4A-\	.	4ee-\]	.	.
8E-/	.	8e-/	.	.	.	.	>
!	!	!	!	!	!	!	!LO:DY:a
8E-/	.	8d 8A-/)	2ryy	.	[>2b-\	-mi!	.
8E-/	.	(>8f 8d 8A-'>/	.	.	.	.	.
8E-/	.	8g 8d 8B-'>/	.	.	.	.	.
8E-/J	.	8a-J 8d 8c'>/)	.	[	.	.	]]
*	*	*v	*v	*	*	*	*
=94	=94	=94	=94	=94	=94	=94
!LO:N:vis=2	!	!	!	!	!	!
8EE-/L	2.EE-\	8gL 8e- 8B-/	p	4b-\]	.	.
8BB-/	.	(<8G/J	.	.	.	.
8BB-/	.	[<2c/)	.	4r	.	.
8BB-/	.	.	.	.	.	.
8BB-/	.	.	.	4r	.	.
8BB-/J	.	.	.	.	.	.
!!LO:LB:g=original
=95	=95	=95	=95	=95	=95	=95
!LO:N:vis=2	!	!	!	!	!	!
8EE-\L	2.EE-/	8c/L]	pp	2.r	.	.
8BB-\	.	(>8C</J	.	.	.	.
8BB-\	.	[>2G</)	.	.	.	.
8BB-\	.	.	.	.	.	.
8BB-\	.	.	.	.	.	.
[>8BB-\J	.	.	.	.	.	.
=96	=96	=96	=96	=96	=96	=96
8BB-/]	[<2.EE-\	2.G</_>	.	2.r	.	.
4BB-/	.	.	.	.	.	.
4BB-/	.	.	.	.	.	.
8BB-/	.	.	.	.	.	.
=97	=97	=97	=97	=97	=97	=97
8BB-/L	2.EE-;<\]	2.G<;>/]	.	2.r;>	.	.
[>8BB-/J	.	.	.	.	.	.
2BB-/]	.	.	.	.	.	.
*v	*v	*	*	*	*	*
==	==	==	==	==	==
*-	*-	*-	*-	*-	*-
!!!system-decoration: (s1){(s2,s3)}
!!!RDF**kern: N = linked
!!!RDF**kern: > = above
!!!RDF**kern: < = below
!!!ENC: Filip Voros
!!!END: 2022-02-15
!!!EED: Antoni Szymański
!!!EST: 2022-02-16
